packages/foundations/assets/icons/functional/images/security/fingerprint_20.svg

<svg width="20" height="20" viewBox="0 0 20 20" fill="none" xmlns="http://www.w3.org/2000/svg">
<g clip-path="url(#clip0_187_230)">
<path fill-rule="evenodd" clip-rule="evenodd" d="M12.1099 17.3691C9.9537 16.1021 8.54952 14.2468 8.05063 12.0045C7.92895 11.4581 8.25445 10.911 8.77827 10.7839C9.30332 10.6575 9.82533 10.9968 9.947 11.5438C10.4167 13.6559 11.9018 14.914 13.065 15.597C13.5335 15.8728 13.6996 16.4923 13.4362 16.9815C13.2573 17.3132 12.9269 17.5 12.5868 17.5C12.4244 17.5 12.2607 17.4581 12.1099 17.3691ZM6.19928 16.918C5.8677 16.918 5.54404 16.7407 5.36213 16.4217C4.61562 15.1135 4.37531 14.0022 4.36496 13.9552C4.19826 13.3172 4.10396 12.577 4.10396 11.8622C4.10396 10.3468 4.74399 8.91841 5.85979 7.94372C6.73771 7.1768 7.85108 6.75427 8.99486 6.75427C11.1261 6.75427 12.9975 8.17818 13.6521 10.2978C13.817 10.8322 13.5359 11.4053 13.0243 11.5775C12.5114 11.7497 11.9638 11.4568 11.799 10.9224C11.4047 9.6453 10.278 8.78752 8.99486 8.78752C8.30737 8.78752 7.63753 9.04168 7.10883 9.50424C6.43655 10.0913 6.05083 10.951 6.05083 11.8628C6.05083 12.4004 6.1214 12.9563 6.25464 13.4704C6.26681 13.5218 6.45724 14.3707 7.034 15.381C7.309 15.8632 7.15811 16.4872 6.69634 16.7744C6.53998 16.8716 6.36902 16.918 6.19928 16.918ZM16.3559 14.5175C15.8326 14.3891 15.5078 13.8421 15.6313 13.295C16.2092 10.7255 15.383 8.04475 13.4751 6.29996C13.0705 5.92953 13.0304 5.28715 13.3844 4.86525C13.7391 4.44208 14.3536 4.40015 14.7582 4.76994C17.2094 7.01224 18.2705 10.4567 17.527 13.7601C17.4218 14.2284 17.0214 14.5442 16.5804 14.5442C16.5061 14.5448 16.4313 14.5359 16.3559 14.5175ZM2.5562 6.92265C2.15952 6.54332 2.13154 5.90094 2.49414 5.48603C3.96038 3.80987 5.95775 2.76528 8.11877 2.54353C9.14331 2.4406 10.166 2.52002 11.1583 2.78371C11.6791 2.92286 11.9937 3.47629 11.861 4.02018C11.7284 4.56408 11.1997 4.89067 10.6771 4.75406C9.90442 4.54819 9.10742 4.48338 8.30859 4.56725C6.62698 4.73944 5.07253 5.55211 3.93118 6.8572C3.73953 7.07705 3.4761 7.18824 3.21205 7.18824C2.97843 7.18824 2.74298 7.10056 2.5562 6.92265Z" fill="#1A1C1F"/>
</g>
<defs>
<clipPath id="clip0_187_230">
<rect width="20" height="20" fill="white"/>
</clipPath>
</defs>
</svg>

<svg xmlns="http://www.w3.org/2000/svg" width="20" height="20" fill="none"><g clip-path="url(#a)"><path fill="#1A1C1F" fill-rule="evenodd" d="M12.11 17.37c-2.156-1.268-3.56-3.123-4.06-5.366-.121-.546.204-1.093.728-1.22.525-.127 1.047.213 1.169.76.47 2.112 1.955 3.37 3.118 4.053.469.276.635.895.371 1.385a.97.97 0 0 1-.85.518.93.93 0 0 1-.476-.13m-5.91-.452a.97.97 0 0 1-.838-.496c-.746-1.309-.987-2.42-.997-2.467a8.5 8.5 0 0 1-.261-2.093c0-1.515.64-2.944 1.756-3.918a4.77 4.77 0 0 1 3.135-1.19c2.131 0 4.003 1.424 4.657 3.544.165.534-.116 1.107-.628 1.28-.513.172-1.06-.121-1.225-.656-.394-1.277-1.521-2.134-2.804-2.134-.688 0-1.357.254-1.886.716a3.12 3.12 0 0 0-1.058 2.359c0 .537.07 1.093.204 1.607.012.052.202.9.779 1.911.275.482.124 1.106-.338 1.393a.94.94 0 0 1-.497.144m10.156-2.4c-.523-.129-.848-.676-.725-1.223.578-2.57-.248-5.25-2.156-6.995a1.05 1.05 0 0 1-.09-1.435.945.945 0 0 1 1.373-.095c2.451 2.242 3.512 5.687 2.769 8.99a.98.98 0 0 1-.947.784 1 1 0 0 1-.224-.027m-13.8-7.595a1.05 1.05 0 0 1-.062-1.437C3.96 3.81 5.958 2.766 8.12 2.544a8.5 8.5 0 0 1 3.04.24c.52.139.835.692.702 1.236s-.661.87-1.184.734a6.5 6.5 0 0 0-2.368-.187c-1.682.172-3.236.985-4.378 2.29a.948.948 0 0 1-1.375.065" clip-rule="evenodd"/></g><defs><clipPath id="a"><path fill="#fff" d="M0 0h20v20H0z"/></clipPath></defs></svg>
